X:209
T: NACHT UND STILL ISTS UM MICH HER
N: B0246A
O: Europa, Mitteleuropa, Deutschland
R: Tageszeiten - Lied, Abend
M: 4/4
L: 1/8
K: G
 | G2G2B2B2 | A2A2G4 |
B2B2d2d2 | c2c2B4 |
A2A2c2c2 | BABcA4 |
c2c2B2A2 | G2F2G4

@@@ Tune index: 2012
